X: 184
T:New Broom, The
R:barndance
C:Vincent Broderick
D:Providence: Providence
Z:Devin McCabe
M:C|
L:1/8
Q:200
K:G
G3B d2Bd|e/2g/2e dB d2BA|GFGA ~B2AG|A2E2 E2(3DEF|
!G3B d2Bd|e/2g/2e dB d2Bd|edge dBAc|1B2G2 G2(3DEF:|2B2G2 G2ga||
!b2ba g3a|bgag e/2g/2e d2|edge dBGA|BAAG A2ga|
!b2ba g3a|bgag e/2g/2e d2|edge dBAc|B2G2 G2ga|
!b2ba g3a|bgag e/2g/2e d2|edge dBGA|BAAG AcBA|
!G3B d2Bd|e/2g/2e dB d2Bd|edge dBAc|B2G2 G2(3DEF||
